X: 042046
T: Derry Lass
C: BB 11/05
N: 208
L: 1/8
M: 4/4
R: reel
Q: 1/4=180
K: A
"A"A2 cA eaec | "Bm" BF (3FEF "E"EGBG | "A" A2 ce "F#m" faec|"D" dAFA "E7" GABG | 
"A"A2 cA eaec | "Bm" dB (3BAB "F#m" cBAF |"A" E2 AE "D" FAdf | "E7" edBG "A" A4 :|
"A" eaab agfe | "F#m" cffe fecB | "A" A2 cA eaec | "D"df "A"ec "E"B4|
"A" eaab agfe | "F#m" cffe fecB | "A" A2 ce "D" agaf |1 "E7" edBG "A" ABcd :|\
[2 "E" efge "A" a4 ||
